svgs/regular/starfighter-twin-ion-engine.svg

<svg xmlns="http://www.w3.org/2000/svg" viewBox="0 0 576 512"><!--! Font Awesome Pro 6.4.2 by @fontawesome - https://fontawesome.com License - https://fontawesome.com/license (Commercial License) Copyright 2023 Fonticons, Inc. --><path d="M24 32c13.3 0 24 10.7 24 24V193.7l105.8-24.9C182.4 125 231.8 96 288 96s105.6 29 134.2 72.8L528 193.7V56c0-13.3 10.7-24 24-24s24 10.7 24 24V205v19 64 19V456c0 13.3-10.7 24-24 24s-24-10.7-24-24V318.3L422.2 343.2C393.6 387 344.2 416 288 416s-105.6-29-134.2-72.8L48 318.3V456c0 13.3-10.7 24-24 24s-24-10.7-24-24V307 288 224 205 56C0 42.7 10.7 32 24 32zM444.7 288.6L528 269V243l-83.3-19.6c2.2 10.5 3.3 21.4 3.3 32.6s-1.1 22.1-3.3 32.6zM48 269l83.3 19.6c-2.2-10.5-3.3-21.4-3.3-32.6s1.1-22.1 3.3-32.6L48 243v26zm224 97.9V334.4c-10.2-2.1-19.7-6.1-28.1-11.7l-23 23c14.7 11 32.1 18.4 51.1 21.2zm-73.7-43.8l23-23c-5.6-8.4-9.6-17.9-11.7-28.1H177.1c2.7 19 10.2 36.4 21.2 51.1zM177.1 240h32.5c2.1-10.2 6.1-19.7 11.7-28.1l-23-23c-11 14.7-18.5 32.1-21.2 51.1zm43.8-73.7l23 23c8.4-5.6 17.9-9.6 28.1-11.7V145.1c-19 2.7-36.4 10.2-51.1 21.2zM355.1 345.7l-23-23c-8.4 5.6-17.9 9.6-28.1 11.7v32.5c19-2.7 36.4-10.2 51.1-21.2zm22.6-22.6c11-14.7 18.4-32.1 21.2-51.1H366.4c-2.1 10.2-6.1 19.7-11.7 28.1l23 23zm-23-111.2c5.6 8.4 9.6 17.9 11.7 28.1h32.5c-2.7-19-10.2-36.4-21.2-51.1l-23 23zm.3-45.6c-14.7-11-32.1-18.4-51.1-21.2v32.5c10.2 2.1 19.7 6.1 28.1 11.7l23-23zM310.6 278.6c5.8-5.8 9.4-13.8 9.4-22.6c0-8.8-3.5-16.7-9.2-22.5l-.3-.3c-5.7-5.7-13.6-9.2-22.3-9.2h-.5c-8.7 .1-16.5 3.6-22.3 9.2l-.3 .3c-5.7 5.8-9.2 13.7-9.2 22.5c0 17.7 14.3 32 32 32c8.8 0 16.8-3.6 22.6-9.4z"/></svg>

<svg xmlns="http://www.w3.org/2000/svg" viewBox="0 0 576 512"><!--! Font Awesome Pro 6.1.1 by @fontawesome - https://fontawesome.com License - https://fontawesome.com/license (Commercial License) Copyright 2022 Fonticons, Inc. --><path d="M24 32C37.25 32 48 42.75 48 56V193.7L153.8 168.8C182.4 124.1 231.8 96 288 96C344.2 96 393.6 124.1 422.2 168.8L528 193.7V56C528 42.75 538.7 32 552 32C565.3 32 576 42.75 576 56V456C576 469.3 565.3 480 552 480C538.7 480 528 469.3 528 456V318.3L422.2 343.2C393.6 387 344.2 416 288 416C231.8 416 182.4 387 153.8 343.2L48 318.3V456C48 469.3 37.25 480 24 480C10.75 480 0 469.3 0 456V56C0 42.75 10.75 32 24 32zM444.7 288.6L528 268.1V243L444.7 223.4C446.9 233.9 448 244.8 448 256C448 267.2 446.9 278.1 444.7 288.6V288.6zM131.3 288.6C129.1 278.1 128 267.2 128 256C128 244.8 129.1 233.9 131.3 223.4L48 243V268.1L131.3 288.6zM272 366.9V334.4C261.8 332.3 252.3 328.3 243.9 322.7L220.9 345.7C235.6 356.7 253 364.2 272 366.9V366.9zM198.3 323.1L221.3 300.1C215.7 291.7 211.7 282.2 209.6 272H177.1C179.8 290.1 187.3 308.4 198.3 323.1V323.1zM177.1 240H209.6C211.7 229.8 215.7 220.3 221.3 211.9L198.3 188.9C187.3 203.6 179.8 221 177.1 240V240zM220.9 166.3L243.9 189.3C252.3 183.7 261.8 179.7 271.1 177.6V145.1C253 147.8 235.6 155.3 220.9 166.3L220.9 166.3zM332.1 322.7C323.7 328.3 314.2 332.3 304 334.4V366.9C322.1 364.2 340.4 356.7 355.1 345.7L332.1 322.7zM377.7 323.1C388.7 308.4 396.2 290.1 398.9 272H366.4C364.3 282.2 360.3 291.7 354.7 300.1L377.7 323.1zM354.7 211.9C360.3 220.3 364.3 229.8 366.4 240H398.9C396.2 221 388.7 203.6 377.7 188.9L354.7 211.9zM355.1 166.3C340.4 155.3 322.1 147.8 304 145.1V177.6C314.2 179.7 323.7 183.7 332.1 189.3L355.1 166.3zM310.6 278.6C316.4 272.8 320 264.8 320 256C320 247.2 316.5 239.3 310.8 233.5L310.5 233.2C304.8 227.6 296.9 224.1 288.2 224H287.8C279.1 224.1 271.2 227.6 265.5 233.2L265.2 233.5C259.5 239.3 256 247.2 256 256C256 273.7 270.3 288 288 288C296.8 288 304.8 284.4 310.6 278.6V278.6z"/></svg>
